!!! OTL: Ban-,Jiu-,Diau\ (Song of turtledove)
!!! YEC: Copyright 2001, Chia-wei Lee
!! For Voice Only 
!! [Vivace]
**kern	**silbe
*clefG2	*LXinhua
*D:	*ping-ying
*M2/4	*
=13	=13
8dd	Chuen-
(16dd	Tien-
16b)	|
(16a	Ma^
16b)	|
(16ee	Ge/
16dd)	|
=14	=14
8b	Jiao\
16b	A-
16a	|
4b	|
=15	=15
8dd	Chuen-
(16dd	Tien-
16b)	|
(16a	Ban-
16b)	|
(16ee	Jiu-
16dd)	|
=16	=16
8b	Jiao\
16b	A-
16a	|
4b	|
=17	=17
8dd	Ban-
4dd	Jiu-
16dd	|
16ee	|
=18	=18
8ff#	Ia-
8ff#	|
4ee	Qi^
=19	=19
16b	Shi/
16b	Zai\
16b	Li^
16ee	Ge/
16dd	Jiao\
16ee	|
16b	Ge/
16a	|
=20	=20
8.f#	Hau^
16e	Ua
16f#	Yi-
16e	Ia-
16f#	YI
16b	Zi^
=21	=21
2a	Io!
*-	*-
